public/assets/img/material-icons/rowing.svg

<svg height="24" viewBox="0 0 24 24" width="24" xmlns="http://www.w3.org/2000/svg"><path d="m8.5 14.5-4.5 4.5 1.5 1.5 3.5-3.5h2zm6.5-13.5c-1.1 0-2 .9-2 2s.9 2 2 2 2-.9 2-2-.9-2-2-2zm6 20.01-3 2.99-2.99-3.01v-1.49l-7.1-7.09c-.31.05-.61.07-.91.07v-2.16c1.66.03 3.61-.87 4.67-2.04l1.4-1.55c.35-.39.99-.73 1.65-.73h.03c1.24.01 2.25 1.02 2.25 2.26v5.75c0 .84-.35 1.61-.92 2.16l-3.58-3.58v-2.27c-.63.52-1.43 1.02-2.29 1.39l6.29 6.29h1.5z"/></svg>

<svg xmlns="http://www.w3.org/2000/svg" width="24" height="24" viewBox="0 0 24 24"><path d="M8.5 14.5 4 19l1.5 1.5L9 17h2l-2.5-2.5zM15 1c-1.1 0-2 .9-2 2s.9 2 2 2 2-.9 2-2-.9-2-2-2zm6 20.01L18 24l-2.99-3.01V19.5l-7.1-7.09c-.31.05-.61.07-.91.07v-2.16c1.66.03 3.61-.87 4.67-2.04l1.4-1.55c.35-.39.99-.73 1.65-.73h.03C15.99 6.01 17 7.02 17 8.26v5.75c0 .84-.35 1.61-.92 2.16l-3.58-3.58v-2.27c-.63.52-1.43 1.02-2.29 1.39L16.5 18H18l3 3.01z"/></svg>
